X:1
T:Chester
M:2/4
L:1/8
K:D
 A2 Bc| d2 A2|B-dc-B| A4| A2 AA|A-BA/2-G/2 F|G-FE-D| E4| A2 BB| A2B-c|\
d-AB-c| d4| d3/2- c/2 BA|B/2-A/2-G/2-F/2 EA|D-G-F E| D4|
